( generated with hf2gcode 0.2.2 )
G21 ( base unit mm )
G90 ( absolute distance mode )
G94 ( Feed Rate Mode: Units per minute Mode )
G17 ( X-Y plane )
M3 S10000
( text="Canara Engineering College", font="rowmans" )
( scale=0.500000, feed=200.000000, precision=3 )
F200.000
G0 Z1.000 ( Pen-Up at start)
;C = ZKYIWGUFQFOGMILKKNKSLVMXOZQ[U[WZYXZV
G0 X9.000 Y53.500
G1 Z-1.000 ( Pen-Down )
G1 X8.500 Y54.500
G1 X7.500 Y55.500
G1 X6.500 Y56.000
G1 X4.500
G1 X3.500 Y55.500
G1 X2.500 Y54.500
G1 X2.000 Y53.500
G1 X1.500 Y52.000
G1 Y49.500
G1 X2.000 Y48.000
G1 X2.500 Y47.000
G1 X3.500 Y46.000
G1 X4.500 Y45.500
G1 X6.500
G1 X7.500 Y46.000
G1 X8.500 Y47.000
G1 X9.000 Y48.000
G0 Z1.000 ( Pen-Up, EOG )
;a = XMX[ RXPVNTMQMONMPLSLUMXOZQ[T[VZXX
G0 X18.000 Y52.500
G1 Z-1.000 ( Pen-Down )
G1 Y45.500
G0 Z1.000 ( Pen-Up )
G0 Y51.000
G1 Z-1.000 ( Pen-Down )
G1 X17.000 Y52.000
G1 X16.000 Y52.500
G1 X14.500
G1 X13.500 Y52.000
G1 X12.500 Y51.000
G1 X12.000 Y49.500
G1 Y48.500
G1 X12.500 Y47.000
G1 X13.500 Y46.000
G1 X14.500 Y45.500
G1 X16.000
G1 X17.000 Y46.000
G1 X18.000 Y47.000
G0 Z1.000 ( Pen-Up, EOG )
;n = MMM[ RMQPNRMUMWNXQX[
G0 X22.000 Y52.500
G1 Z-1.000 ( Pen-Down )
G1 Y45.500
G0 Z1.000 ( Pen-Up )
G0 Y50.500
G1 Z-1.000 ( Pen-Down )
G1 X23.500 Y52.000
G1 X24.500 Y52.500
G1 X26.000
G1 X27.000 Y52.000
G1 X27.500 Y50.500
G1 Y45.500
G0 Z1.000 ( Pen-Up, EOG )
;a = XMX[ RXPVNTMQMONMPLSLUMXOZQ[T[VZXX
G0 X37.000 Y52.500
G1 Z-1.000 ( Pen-Down )
G1 Y45.500
G0 Z1.000 ( Pen-Up )
G0 Y51.000
G1 Z-1.000 ( Pen-Down )
G1 X36.000 Y52.000
G1 X35.000 Y52.500
G1 X33.500
G1 X32.500 Y52.000
G1 X31.500 Y51.000
G1 X31.000 Y49.500
G1 Y48.500
G1 X31.500 Y47.000
G1 X32.500 Y46.000
G1 X33.500 Y45.500
G1 X35.000
G1 X36.000 Y46.000
G1 X37.000 Y47.000
G0 Z1.000 ( Pen-Up, EOG )
;r = OMO[ ROSPPRNTMWM
G0 X41.000 Y52.500
G1 Z-1.000 ( Pen-Down )
G1 Y45.500
G0 Z1.000 ( Pen-Up )
G0 Y49.500
G1 Z-1.000 ( Pen-Down )
G1 X41.500 Y51.000
G1 X42.500 Y52.000
G1 X43.500 Y52.500
G1 X45.000
G0 Z1.000 ( Pen-Up, EOG )
;a = XMX[ RXPVNTMQMONMPLSLUMXOZQ[T[VZXX
G0 X53.000
G1 Z-1.000 ( Pen-Down )
G1 Y45.500
G0 Z1.000 ( Pen-Up )
G0 Y51.000
G1 Z-1.000 ( Pen-Down )
G1 X52.000 Y52.000
G1 X51.000 Y52.500
G1 X49.500
G1 X48.500 Y52.000
G1 X47.500 Y51.000
G1 X47.000 Y49.500
G1 Y48.500
G1 X47.500 Y47.000
G1 X48.500 Y46.000
G1 X49.500 Y45.500
G1 X51.000
G1 X52.000 Y46.000
G1 X53.000 Y47.000
G0 Z1.000 ( Pen-Up, EOG )
;  = 
G0 Z1.000 ( Pen-Up, EOG )
;E = LFL[ RLFYF RLPTP RL[Y[
G0 X65.000 Y56.000
G1 Z-1.000 ( Pen-Down )
G1 Y45.500
G0 Z1.000 ( Pen-Up )
G0 Y56.000
G1 Z-1.000 ( Pen-Down )
G1 X71.500
G0 Z1.000 ( Pen-Up )
G0 X65.000 Y51.000
G1 Z-1.000 ( Pen-Down )
G1 X69.000
G0 Z1.000 ( Pen-Up )
G0 X65.000 Y45.500
G1 Z-1.000 ( Pen-Down )
G1 X71.500
G0 Z1.000 ( Pen-Up, EOG )
;n = MMM[ RMQPNRMUMWNXQX[
G0 X74.500 Y52.500
G1 Z-1.000 ( Pen-Down )
G1 Y45.500
G0 Z1.000 ( Pen-Up )
G0 Y50.500
G1 Z-1.000 ( Pen-Down )
G1 X76.000 Y52.000
G1 X77.000 Y52.500
G1 X78.500
G1 X79.500 Y52.000
G1 X80.000 Y50.500
G1 Y45.500
G0 Z1.000 ( Pen-Up, EOG )
;g = XMX]W`VaTbQbOa RXPVNTMQMONMPLSLUMXOZQ[T[VZXX
G0 X89.500 Y52.500
G1 Z-1.000 ( Pen-Down )
G1 Y44.500
G1 X89.000 Y43.000
G1 X88.500 Y42.500
G1 X87.500 Y42.000
G1 X86.000
G1 X85.000 Y42.500
G0 Z1.000 ( Pen-Up )
G0 X89.500 Y51.000
G1 Z-1.000 ( Pen-Down )
G1 X88.500 Y52.000
G1 X87.500 Y52.500
G1 X86.000
G1 X85.000 Y52.000
G1 X84.000 Y51.000
G1 X83.500 Y49.500
G1 Y48.500
G1 X84.000 Y47.000
G1 X85.000 Y46.000
G1 X86.000 Y45.500
G1 X87.500
G1 X88.500 Y46.000
G1 X89.500 Y47.000
G0 Z1.000 ( Pen-Up, EOG )
;i = QFRGSFREQF RRMR[
G0 X93.000 Y56.000
G1 Z-1.000 ( Pen-Down )
G1 X93.500 Y55.500
G1 X94.000 Y56.000
G1 X93.500 Y56.500
G1 X93.000 Y56.000
G0 Z1.000 ( Pen-Up )
G0 X93.500 Y52.500
G1 Z-1.000 ( Pen-Down )
G1 Y45.500
G0 Z1.000 ( Pen-Up, EOG )
;n = MMM[ RMQPNRMUMWNXQX[
G0 X97.500 Y52.500
G1 Z-1.000 ( Pen-Down )
G1 Y45.500
G0 Z1.000 ( Pen-Up )
G0 Y50.500
G1 Z-1.000 ( Pen-Down )
G1 X99.000 Y52.000
G1 X100.000 Y52.500
G1 X101.500
G1 X102.500 Y52.000
G1 X103.000 Y50.500
G1 Y45.500
G0 Z1.000 ( Pen-Up, EOG )
;e = LSXSXQWOVNTMQMONMPLSLUMXOZQ[T[VZXX
G0 X106.500 Y49.500
G1 Z-1.000 ( Pen-Down )
G1 X112.500
G1 Y50.500
G1 X112.000 Y51.500
G1 X111.500 Y52.000
G1 X110.500 Y52.500
G1 X109.000
G1 X108.000 Y52.000
G1 X107.000 Y51.000
G1 X106.500 Y49.500
G1 Y48.500
G1 X107.000 Y47.000
G1 X108.000 Y46.000
G1 X109.000 Y45.500
G1 X110.500
G1 X111.500 Y46.000
G1 X112.500 Y47.000
G0 Z1.000 ( Pen-Up, EOG )
;e = LSXSXQWOVNTMQMONMPLSLUMXOZQ[T[VZXX
G0 X115.500 Y49.500
G1 Z-1.000 ( Pen-Down )
G1 X121.500
G1 Y50.500
G1 X121.000 Y51.500
G1 X120.500 Y52.000
G1 X119.500 Y52.500
G1 X118.000
G1 X117.000 Y52.000
G1 X116.000 Y51.000
G1 X115.500 Y49.500
G1 Y48.500
G1 X116.000 Y47.000
G1 X117.000 Y46.000
G1 X118.000 Y45.500
G1 X119.500
G1 X120.500 Y46.000
G1 X121.500 Y47.000
G0 Z1.000 ( Pen-Up, EOG )
;r = OMO[ ROSPPRNTMWM
G0 X125.000 Y52.500
G1 Z-1.000 ( Pen-Down )
G1 Y45.500
G0 Z1.000 ( Pen-Up )
G0 Y49.500
G1 Z-1.000 ( Pen-Down )
G1 X125.500 Y51.000
G1 X126.500 Y52.000
G1 X127.500 Y52.500
G1 X129.000
G0 Z1.000 ( Pen-Up, EOG )
;i = QFRGSFREQF RRMR[
G0 X131.000 Y56.000
G1 Z-1.000 ( Pen-Down )
G1 X131.500 Y55.500
G1 X132.000 Y56.000
G1 X131.500 Y56.500
G1 X131.000 Y56.000
G0 Z1.000 ( Pen-Up )
G0 X131.500 Y52.500
G1 Z-1.000 ( Pen-Down )
G1 Y45.500
G0 Z1.000 ( Pen-Up, EOG )
;n = MMM[ RMQPNRMUMWNXQX[
G0 X135.500 Y52.500
G1 Z-1.000 ( Pen-Down )
G1 Y45.500
G0 Z1.000 ( Pen-Up )
G0 Y50.500
G1 Z-1.000 ( Pen-Down )
G1 X137.000 Y52.000
G1 X138.000 Y52.500
G1 X139.500
G1 X140.500 Y52.000
G1 X141.000 Y50.500
G1 Y45.500
G0 Z1.000 ( Pen-Up, EOG )
;g = XMX]W`VaTbQbOa RXPVNTMQMONMPLSLUMXOZQ[T[VZXX
G0 X150.500 Y52.500
G1 Z-1.000 ( Pen-Down )
G1 Y44.500
G1 X150.000 Y43.000
G1 X149.500 Y42.500
G1 X148.500 Y42.000
G1 X147.000
G1 X146.000 Y42.500
G0 Z1.000 ( Pen-Up )
G0 X150.500 Y51.000
G1 Z-1.000 ( Pen-Down )
G1 X149.500 Y52.000
G1 X148.500 Y52.500
G1 X147.000
G1 X146.000 Y52.000
G1 X145.000 Y51.000
G1 X144.500 Y49.500
G1 Y48.500
G1 X145.000 Y47.000
G1 X146.000 Y46.000
G1 X147.000 Y45.500
G1 X148.500
G1 X149.500 Y46.000
G1 X150.500 Y47.000
G0 Z1.000 ( Pen-Up, EOG )
;  = 
G0 Z1.000 ( Pen-Up, EOG )
;C = ZKYIWGUFQFOGMILKKNKSLVMXOZQ[U[WZYXZV
G0 X169.500 Y53.500
G1 Z-1.000 ( Pen-Down )
G1 X169.000 Y54.500
G1 X168.000 Y55.500
G1 X167.000 Y56.000
G1 X165.000
G1 X164.000 Y55.500
G1 X163.000 Y54.500
G1 X162.500 Y53.500
G1 X162.000 Y52.000
G1 Y49.500
G1 X162.500 Y48.000
G1 X163.000 Y47.000
G1 X164.000 Y46.000
G1 X165.000 Y45.500
G1 X167.000
G1 X168.000 Y46.000
G1 X169.000 Y47.000
G1 X169.500 Y48.000
G0 Z1.000 ( Pen-Up, EOG )
;o = QMONMPLSLUMXOZQ[T[VZXXYUYSXPVNTMQM
G0 X175.000 Y52.500
G1 Z-1.000 ( Pen-Down )
G1 X174.000 Y52.000
G1 X173.000 Y51.000
G1 X172.500 Y49.500
G1 Y48.500
G1 X173.000 Y47.000
G1 X174.000 Y46.000
G1 X175.000 Y45.500
G1 X176.500
G1 X177.500 Y46.000
G1 X178.500 Y47.000
G1 X179.000 Y48.500
G1 Y49.500
G1 X178.500 Y51.000
G1 X177.500 Y52.000
G1 X176.500 Y52.500
G1 X175.000
G0 Z1.000 ( Pen-Up, EOG )
;l = RFR[
G0 X182.500 Y56.000
G1 Z-1.000 ( Pen-Down )
G1 Y45.500
G0 Z1.000 ( Pen-Up, EOG )
;l = RFR[
G0 X186.500 Y56.000
G1 Z-1.000 ( Pen-Down )
G1 Y45.500
G0 Z1.000 ( Pen-Up, EOG )
;e = LSXSXQWOVNTMQMONMPLSLUMXOZQ[T[VZXX
G0 X190.000 Y49.500
G1 Z-1.000 ( Pen-Down )
G1 X196.000
G1 Y50.500
G1 X195.500 Y51.500
G1 X195.000 Y52.000
G1 X194.000 Y52.500
G1 X192.500
G1 X191.500 Y52.000
G1 X190.500 Y51.000
G1 X190.000 Y49.500
G1 Y48.500
G1 X190.500 Y47.000
G1 X191.500 Y46.000
G1 X192.500 Y45.500
G1 X194.000
G1 X195.000 Y46.000
G1 X196.000 Y47.000
G0 Z1.000 ( Pen-Up, EOG )
;g = XMX]W`VaTbQbOa RXPVNTMQMONMPLSLUMXOZQ[T[VZXX
G0 X205.000 Y52.500
G1 Z-1.000 ( Pen-Down )
G1 Y44.500
G1 X204.500 Y43.000
G1 X204.000 Y42.500
G1 X203.000 Y42.000
G1 X201.500
G1 X200.500 Y42.500
G0 Z1.000 ( Pen-Up )
G0 X205.000 Y51.000
G1 Z-1.000 ( Pen-Down )
G1 X204.000 Y52.000
G1 X203.000 Y52.500
G1 X201.500
G1 X200.500 Y52.000
G1 X199.500 Y51.000
G1 X199.000 Y49.500
G1 Y48.500
G1 X199.500 Y47.000
G1 X200.500 Y46.000
G1 X201.500 Y45.500
G1 X203.000
G1 X204.000 Y46.000
G1 X205.000 Y47.000
G0 Z1.000 ( Pen-Up, EOG )
;e = LSXSXQWOVNTMQMONMPLSLUMXOZQ[T[VZXX
G0 X208.500 Y49.500
G1 Z-1.000 ( Pen-Down )
G1 X214.500
G1 Y50.500
G1 X214.000 Y51.500
G1 X213.500 Y52.000
G1 X212.500 Y52.500
G1 X211.000
G1 X210.000 Y52.000
G1 X209.000 Y51.000
G1 X208.500 Y49.500
G1 Y48.500
G1 X209.000 Y47.000
G1 X210.000 Y46.000
G1 X211.000 Y45.500
G1 X212.500
G1 X213.500 Y46.000
G1 X214.500 Y47.000
G0 Z1.000 ( Pen-Up, EOG )
M5 (stop the spindle)
M30 (Program stop, rewind to beginning of program)
